!!!COM: Palestrina, Giovanni Perluigi da
!!!OPR: Missa Panis quem ego dabo
!!!OMD: Sanctus
!!!OTL: First Section
**kern	**kern	**kern	**kern
*Ibass	*Itenor	*Icalto	*Icant
!Bassus	!Tenor	!Altus	!Cantus
*clefF4	*clefGv2	*clefG2	*clefG2
*k[]	*k[]	*k[]	*k[]
*D:dor	*D:dor	*D:dor	*D:dor
*M4/2	*M4/2	*M4/2	*M4/2
=1	=1	=1	=1
1.G	1r	0r	0r
.	[1d	.	.
2G	.	.	.
=2	=2	=2	=2
2F	2d]	0r	0r
2D	2d	.	.
[1F	2c	.	.
.	2A	.	.
=3	=3	=3	=3
2F]	1d	0r	0r
2G	.	.	.
2A	2c#	.	.
2F#	[2d	.	.
=4	=4	=4	=4
0G	4d]	1.g	1r
.	4c	.	.
.	4B	.	.
.	4A	.	.
.	1B	.	[1dd
.	.	2g	.
=5	=5	=5	=5
1D	1A	2f	2dd]
.	.	2d	2dd
1r	2r	[1f	2cc
.	[2d	.	2a
=6	=6	=6	=6
0r	4d]	2f]	1dd
.	4c	.	.
.	2B	2g	.
.	2A	2a	2cc#
.	2d	2f	[2dd
=7	=7	=7	=7
2r	1G	1g	4dd]
.	.	.	4cc
1G	.	.	4b
.	.	.	4a
.	2r	2.d	1b
2G	[2d	.	.
.	.	4e	.
=8	=8	=8	=8
2F	2d]	4f	2a
.	.	4g	.
2D	2d	2a	2.dd
1G	4B	1d	.
.	4G	.	4cc
.	4B	.	2b
.	4c	.	.
=9	=9	=9	=9
2F#	2.d	1r	2a
2.G	.	.	2b
.	4B	.	.
.	4e	2r	1g
4F	4d	.	.
4E	[2d	[2g	.
4D	.	.	.
=10	=10	=10	=10
1E	2d]	2g]	0r
.	2c#	2g	.
2D	[1d	2f	.
2G	.	2d	.
=11	=11	=11	=11
2A	1d]	1g	0r
4B	.	.	.
4c	.	.	.
2d	1r	2f#	.
[2e	.	[2g	.
=12	=12	=12	=12
4e]	0r	4g]	1.g
4d	.	4f	.
4c	.	4e	.
4B	.	4d	.
1c	.	1e	.
.	.	.	2g
=13	=13	=13	=13
2d	1r	4d	2f
.	.	4e	.
1d	.	4f	2d
.	.	4g	.
.	2r	1a	2.f
2d	[2a	.	.
.	.	.	4g
=14	=14	=14	=14
2c	2a]	1.cc	4a
.	.	.	4b
2A	2a	.	4cc
.	.	.	4dd
2.c	2g	.	4ee
.	.	.	4cc
.	2e	2cc	[2ee
8B	.	.	.
8A	.	.	.
=15	=15	=15	=15
2G	4g	2b-	4ee]
.	4f	.	4dd
2B-	4e	2g	1dd
.	4d	.	.
1A	1e	1a	.
.	.	.	2cc#
=16	=16	=16	=16
0D	0d	2r	[0dd
.	.	1a	.
.	.	2f#	.
=17	=17	=17	=17
0r	2r	2g	0dd]
.	1d	2a	.
.	.	2d	.
.	2B	[2g	.
=18	=18	=18	=18
0r	2c	2g]	2r
.	2d	2f#	1dd
.	2G	2.g	.
.	[2g	.	2b
.	.	4f	.
=19	=19	=19	=19
1r	2g]	2e	2cc
.	2f	2d	2dd
2r	2.e	2.c	2g
[2A	.	.	[2cc
.	4d	4d	.
=20	=20	=20	=20
2A]	4c	2e	2cc]
.	4A	.	.
2F	1d	2f	2a
2G	.	1e	2b
2A	2c	.	[2a
=21	=21	=21	=21
2D	1d	1d	2a]
1d	.	.	2g#
.	1A	2r	1a
2c	.	2a	.
=22	=22	=22	=22
2B	2r	2g	0r
2.c	1e	2g	.
.	.	2.cc	.
4B	.	.	.
4A	2c	.	.
4G	.	4b	.
=23	=23	=23	=23
2F	2d	2a	2r
2E	2e	2g#	2ee
1F	2A	2a	2cc
.	[2a	2A	2dd
=24	=24	=24	=24
1E	2a]	2B	1ee
.	2g	2c#	.
4D	1f	1d	2a
4E	.	.	.
4F	.	.	[2dd
4G	.	.	.
=25	=25	=25	=25
0A	1e	2r	2dd]
.	.	1e	2.cc
.	4A	.	.
.	4B	.	4b
.	4c	2c	[2a
.	4A	.	.
=26	=26	=26	=26
0r	2B	2d	2a]
.	1c	2e	2g
.	.	2A	4a
.	.	.	4b
.	2A	[2a	4cc
.	.	.	4dd
=27	=27	=27	=27
1r	1c	2a]	4ee
.	.	.	4ff
.	.	2g	2.ee
2r	1d	2.f	.
.	.	.	4dd
2D	.	.	[2dd
.	.	8e	.
.	.	8d	.
=28	=28	=28	=28
2A	1r	1e	2dd]
2A	.	.	2cc#
1B-	2r	1d	2.dd
.	2d	.	.
.	.	.	4cc
=29	=29	=29	=29
2G	2e	1r	2b-
2F	1f	.	1a
1B-	.	1d	.
.	4e	.	2g
.	4d	.	.
=30	=30	=30	=30
2A	2c#	2e	[0a
4D	1d	1f	.
4E	.	.	.
4F	.	.	.
4G	.	.	.
[2A	4c	4e	.
.	4B	4d	.
=31	=31	=31	=31
2A]	1A	2c	1a]
2F	.	1d	.
2G	2B	.	1r
2A	[2e	4c	.
.	.	4B	.
=32	=32	=32	=32
2G	2e]	2A	2r
2F	2.d	2A	2a
1E	.	2B	2ee
.	8c	.	.
.	8B	.	.
.	2c#	2G	2ee
=33	=33	=33	=33
1D	2d	2A	1ff
.	2f	2a	.
1r	2f	2a	2dd
.	2e	2g	2cc
=34	=34	=34	=34
2r	1d	1a	1ff
2d	.	.	.
2d	1A	2a	2ee
2c#	.	2e	2a
=35	=35	=35	=35
2.d	1r	2f	2a
.	.	2d	2b
8c	.	.	.
8B	.	.	.
2A	2r	1e	4cc
.	.	.	4dd
2c	2a	.	4ee
.	.	.	4cc
=36	=36	=36	=36
1B-	2a	2.d	1.dd
.	2g	.	.
.	.	4e	.
2A	2.a	2f	.
2A	.	2e	2cc#
.	4g	.	.
=37	=37	=37	=37
2B-	2f	1d	2r
2G	2g	.	2dd
1A	1e	2r	2dd
.	.	2a	2cc#
=38	=38	=38	=38
1D	2r	2b-	1dd
.	2d	4a	.
.	.	4g	.
1r	2d	2f	2a
.	2c#	[2a	2ee
=39	=39	=39	=39
2r	1d	4a]	2ff
.	.	4g	.
2d	.	2f	2dd
2d	2A	1e	1ee
2c#	2e	.	.
=40	=40	=40	=40
2.d	2f	1r	2.a
.	2d	.	.
8c	.	.	4b
8B	.	.	.
2A	2.e	1a	4cc
.	.	.	4dd
2c	.	.	[2ee
.	4f	.	.
=41	=41	=41	=41
1B-	4g	2b-	4ee]
.	4f	.	4dd
.	4e	2g	1dd
.	4d	.	.
1A	1e	1a	.
.	.	.	2cc#
=42	=42	=42	=42
0D	0d	0f#	0dd
*-	*-	*-	*-
!!!CDT: 1525/^1526/-1594/2/2
!!!OCY: Italia
!!!AGN: Mass (Parody)
!!!AST: renaissance, vocal
!!!ASW: Motet 1532 (Lupus Hellinck)
!!!PWK: Masses, Book 5
!!!RNB: Cadence finals: A
!!!YOR: Le Opere Complete, v. 15, p. 45
!!!YOO: Rome, Italy: Fratelli Scalera
!!!END: 1992//
!!!EED: John Miller
!!!YEC: Copyright 2000, John Miller
!!!YEN: United States of America
!!!YEM: Rights to all derivative electronic formats reserved.
!!!YEM: Refer to licensing agreement for further details.
!!!YEM: This file must be accompanied by the licensing agreement.
!!!YEM: A copy of the licensing agreement may be found at http://www.music-cog.ohio-state.edu/HumdrumDatabases/Palestrina/license.txt
!!!EMD: converted to Humdrum by Bret Aarden
